svg-min/ellipsis.svg

<svg xmlns="http://www.w3.org/2000/svg" width="16" height="16" viewBox="0 0 16 16"><rect x="0" fill="none" width="16" height="16"/><g><path d="M3 6.25c-.967 0-1.75.783-1.75 1.75 0 .966.783 1.75 1.75 1.75S4.75 8.966 4.75 8c0-.967-.783-1.75-1.75-1.75zm5 0c-.967 0-1.75.783-1.75 1.75 0 .966.783 1.75 1.75 1.75.966 0 1.75-.784 1.75-1.75 0-.967-.784-1.75-1.75-1.75zm5 0c-.966 0-1.75.783-1.75 1.75 0 .966.784 1.75 1.75 1.75s1.75-.784 1.75-1.75c0-.967-.784-1.75-1.75-1.75z"/></g></svg>

<svg xmlns="http://www.w3.org/2000/svg" viewBox="0 0 16 16"><rect x="0" fill="none" width="16" height="16"/><g><path d="M3 6.2C2 6.2 1.2 7 1.2 8S2 9.8 3 9.8 4.8 9 4.8 8 4 6.2 3 6.2zm10 0c-1 0-1.8.8-1.8 1.8S12 9.8 13 9.8 14.8 9 14.8 8 14 6.2 13 6.2zm-5 0C7 6.2 6.2 7 6.2 8S7 9.8 8 9.8 9.8 9 9.8 8 9 6.2 8 6.2z"/></g></svg>
